Assets/Icons/omada.svg

<svg version="1.2" xmlns="http://www.w3.org/2000/svg" viewBox="0 0 24 24" width="24" height="24"><style></style><path d="M 5.9069564,7.6223294 2.2793176,5.0831818 C 2.1073765,5.3208889 1.9435977,5.5645774 1.7890659,5.8142474 l 3.645048,2.5511103 C 5.5772203,8.1080776 5.7355577,7.8600365 5.9069564,7.6223294 Z M 5.1353998,8.966933 1.0049903,7.2986842 C 0.8564432,7.6337492 0.7236784,7.9753475 0.6061488,8.3234791 l 4.159246,1.6796959 C 4.8638848,9.646338 4.9879366,9.300449 5.1353998,8.966933 Z M 4.6576582,10.440475 0.2225445,9.738284 C 0.1349415,10.168553 0.0740002,10.604786 0.036456,11.04538 l 4.4639497,0.707175 c 0.014697,-0.448248 0.067477,-0.886706 0.1572525,-1.31208 z M 4.4944218,12 c 0,-0.006 5.424e-4,-0.01193 5.424e-4,-0.01798 L 0,12.295955 c 0.013603,0.51723 0.060397,1.029654 0.1431038,1.534424 L 4.6478689,13.515465 C 4.5472009,13.025916 4.4944218,12.518922 4.4944218,12 Z M 24,12 C 24,18.33592 18.625174,24 11.995688,24 8.2303484,24 4.8714954,22.171846 2.6705374,19.431975 L 4.5254348,17.702799 2.3206713,18.975003 C 1.9245524,18.432761 1.5735927,17.858832 1.2705218,17.25998 L 4.3262951,15.496536 0.9299028,16.53438 C 0.6959284,15.985551 0.5038546,15.418208 0.3547661,14.837781 l 4.2952722,-1.312525 c 0.7046402,3.41002 3.725586,5.973654 7.3456497,5.973654 4.142928,0 7.501728,-3.357327 7.501728,-7.49891 0,-4.1416013 -3.3588,-7.4993814 -7.501728,-7.4993814 -2.18683,0 -4.1543899,0.9361332 -5.5255707,2.4287232 L 3.5003145,3.6319364 C 5.6729892,1.4197006 8.677068,0 11.995688,0 18.625174,0 24,5.6641161 24,12 Z"/></svg>

<svg version="1.2" xmlns="http://www.w3.org/2000/svg" viewBox="0 0 24 24" width="24" height="24"><style></style><path  d="m24 12c0 6.3-5.4 12-12 12-3.8 0-7.1-1.9-9.3-4.6l1.8-1.7-2.2 1.2q-0.6-0.8-1-1.7l3-1.7-3.4 1q-0.3-0.8-0.5-1.7l4.2-1.3c0.8 3.4 3.8 6 7.4 6 4.1 0 7.5-3.4 7.5-7.5 0-4.2-3.4-7.5-7.5-7.5-2.2 0-4.2 0.9-5.5 2.4l-3-3.3c2.2-2.2 5.2-3.6 8.5-3.6 6.6 0 12 5.7 12 12zm-18.9-3l-4.1-1.7q-0.2 0.5-0.4 1l4.2 1.7q0.1-0.5 0.3-1zm-0.4 1.4l-4.5-0.7q-0.1 0.7-0.2 1.3l4.5 0.7q0-0.6 0.2-1.3zm-0.2 1.6q0 0 0 0l-4.5 0.3q0 0.8 0.1 1.5l4.5-0.3q-0.1-0.7-0.1-1.5zm1.4-4.4l-3.6-2.5q-0.3 0.3-0.5 0.7l3.6 2.6q0.2-0.4 0.5-0.8z"/></svg>
